X:647
T:Miss Jessy Cumming
R:Strathspey
B:The Athole Collection
M:C
L:1/8
K:D
B|A>FD>d A>F DF G/F/E/D/ E<(ee)f/g/|a<fg<e f<de<c|d>B A<F A<dd:|
g|f<ad<a c<aA<a|f<ad<f g<(ee)f/g/|f<ad<a c<aA<g|f>d f/e/d/c/ d<D D>g|
f<ad<a c<aA<a|f<ad<f g<(ee)f/g/|f<de<c d>B A<F|G>B A<F D<dd||
